X:310
T: GAR HOCH AUF JENEM BERGE
N: E0912
O: Europa, Mitteleuropa, Deutschland
R: Ehestands - Lied
M: 4/4
L: 1/16
K: F
F4 | c8A8 | B8c8 | A8A4
F4 | c8A8 | B8c4c4- | c4B2A2G8 | F8z4
C4 | F4G4A4B4 | c6B2A4
A4 | G4G4G4G4 | D8G8 | F6EDC4
C4 | F4G4A4B4 | c6B2A4
A4 | G4G4G4G4 | D8G8 | F16 | z12

